svg/文件夹.svg

<svg width="24" height="24" viewBox="0 0 24 24" fill="none" xmlns="http://www.w3.org/2000/svg"><path d="M10 4C10.2652 4 10.5195 4.10543 10.707 4.29297L12.4141 6H21C21.5523 6 22 6.44772 22 7V17C22 18.6569 20.6569 20 19 20H5C3.34315 20 2 18.6569 2 17V5C2 4.44772 2.44772 4 3 4H10ZM15.707 10.293C15.3165 9.90244 14.6835 9.90244 14.293 10.293L11 13.5859L9.70703 12.293C9.31651 11.9024 8.68349 11.9024 8.29297 12.293C7.90244 12.6835 7.90244 13.3165 8.29297 13.707L10.293 15.707C10.6835 16.0976 11.3165 16.0976 11.707 15.707L15.707 11.707C16.0976 11.3165 16.0976 10.6835 15.707 10.293Z" fill="#292929"/></svg>

<svg fill="none" viewBox="0 0 24 24"><path fill="#292929" d="M10 4a1 1 0 0 1 .707.293L12.414 6H21a1 1 0 0 1 1 1v10a3 3 0 0 1-3 3H5a3 3 0 0 1-3-3V5a1 1 0 0 1 1-1zm5.707 6.293a1 1 0 0 0-1.414 0L11 13.586l-1.293-1.293a1 1 0 1 0-1.414 1.414l2 2a1 1 0 0 0 1.414 0l4-4a1 1 0 0 0 0-1.414"/></svg>
